src/assets/illustration.svg

<svg width="181" height="179" viewBox="0 0 181 179" fill="none" xmlns="http://www.w3.org/2000/svg">
<g clip-path="url(#clip0)">
<path d="M90.51 178.02C119.51 178.02 143.02 154.51 143.02 125.51C143.02 96.5095 119.51 73 90.51 73C61.5095 73 38 96.5095 38 125.51C38 154.51 61.5095 178.02 90.51 178.02Z" fill="#2B4C68"/>
<path d="M104.49 108.78C106.335 108.78 107.83 107.285 107.83 105.44C107.83 103.595 106.335 102.1 104.49 102.1C102.645 102.1 101.15 103.595 101.15 105.44C101.15 107.285 102.645 108.78 104.49 108.78Z" fill="white"/>
<path d="M56.85 103.74C58.6946 103.74 60.19 102.245 60.19 100.4C60.19 98.5554 58.6946 97.06 56.85 97.06C55.0054 97.06 53.51 98.5554 53.51 100.4C53.51 102.245 55.0054 103.74 56.85 103.74Z" fill="white"/>
<path d="M78.3401 124.92C84.9401 125.62 90.9901 119.92 92.1601 112.07C92.2301 111.63 91.9001 111.23 91.4601 111.19L68.3701 108.75C67.9301 108.7 67.5301 109.03 67.5001 109.47C67.0201 117.39 71.7501 124.22 78.3401 124.92Z" fill="white"/>
</g>
<g clip-path="url(#clip1)">
<path d="M168.87 32.84L155.51 49.25C154.4 50.61 155.18 52.66 156.91 52.94L177.8 56.3C179.53 56.58 180.91 54.88 180.29 53.24L172.77 33.47C172.14 31.83 169.98 31.48 168.87 32.84Z" fill="white"/>
</g>
<g clip-path="url(#clip2)">
<path d="M13.5 57.16L1.71997 52.19C0.289972 51.59 -0.380028 49.93 0.219972 48.5L5.18997 36.72C5.78997 35.29 7.44997 34.62 8.87997 35.22L20.66 40.19C22.09 40.79 22.76 42.45 22.16 43.88L17.19 55.66C16.59 57.09 14.94 57.76 13.5 57.16Z" fill="white"/>
</g>
<g clip-path="url(#clip3)">
<path d="M103.07 4.63L94.36 6.58L87.81 0.510003C86.65 -0.569997 84.76 0.160003 84.61 1.73L83.77 10.62L75.97 14.97C74.59 15.74 74.69 17.76 76.14 18.39L84.34 21.93L86.07 30.69C86.38 32.24 88.33 32.77 89.37 31.58L95.27 24.88L104.14 25.94C105.71 26.13 106.81 24.43 106.01 23.07L101.46 15.39L105.21 7.29C105.88 5.86 104.61 4.28 103.07 4.63Z" fill="white"/>
</g>
<defs>
<clipPath id="clip0">
<rect width="105.03" height="105.03" fill="white" transform="translate(38 73)"/>
</clipPath>
<clipPath id="clip1">
<rect width="25.45" height="24.33" fill="white" transform="translate(155 32)"/>
</clipPath>
<clipPath id="clip2">
<rect width="22.38" height="22.38" fill="white" transform="translate(0 35)"/>
</clipPath>
<clipPath id="clip3">
<rect width="31.29" height="32.23" fill="white" transform="translate(75)"/>
</clipPath>
</defs>
</svg>

<svg width="181" height="179" fill="none" xmlns="http://www.w3.org/2000/svg"><g clip-path="url(#clip0)"><path d="M90.51 178.02c29 0 52.51-23.51 52.51-52.51 0-29-23.51-52.51-52.51-52.51C61.51 73 38 96.51 38 125.51c0 29 23.51 52.51 52.51 52.51z" fill="#2B4C68"/><path d="M104.49 108.78a3.34 3.34 0 100-6.68 3.34 3.34 0 000 6.68zM56.85 103.74a3.34 3.34 0 100-6.68 3.34 3.34 0 000 6.68zM78.34 124.92c6.6.7 12.65-5 13.82-12.85a.772.772 0 00-.7-.88l-23.09-2.44a.785.785 0 00-.87.72c-.48 7.92 4.25 14.75 10.84 15.45z" fill="#fff"/></g><g clip-path="url(#clip1)"><path d="M168.87 32.84l-13.36 16.41c-1.11 1.36-.33 3.41 1.4 3.69l20.89 3.36c1.73.28 3.11-1.42 2.49-3.06l-7.52-19.77c-.63-1.64-2.79-1.99-3.9-.63z" fill="#fff"/></g><g clip-path="url(#clip2)"><path d="M13.5 57.16L1.72 52.19c-1.43-.6-2.1-2.26-1.5-3.69l4.97-11.78c.6-1.43 2.26-2.1 3.69-1.5l11.78 4.97c1.43.6 2.1 2.26 1.5 3.69l-4.97 11.78a2.82 2.82 0 01-3.69 1.5z" fill="#fff"/></g><g clip-path="url(#clip3)"><path d="M103.07 4.63l-8.71 1.95L87.81.51c-1.16-1.08-3.05-.35-3.2 1.22l-.84 8.89-7.8 4.35c-1.38.77-1.28 2.79.17 3.42l8.2 3.54 1.73 8.76c.31 1.55 2.26 2.08 3.3.89l5.9-6.7 8.87 1.06c1.57.19 2.67-1.51 1.87-2.87l-4.55-7.68 3.75-8.1c.67-1.43-.6-3.01-2.14-2.66z" fill="#fff"/></g><defs><clipPath id="clip0"><path fill="#fff" transform="translate(38 73)" d="M0 0h105.03v105.03H0z"/></clipPath><clipPath id="clip1"><path fill="#fff" transform="translate(155 32)" d="M0 0h25.45v24.33H0z"/></clipPath><clipPath id="clip2"><path fill="#fff" transform="translate(0 35)" d="M0 0h22.38v22.38H0z"/></clipPath><clipPath id="clip3"><path fill="#fff" transform="translate(75)" d="M0 0h31.29v32.23H0z"/></clipPath></defs></svg>
